packages/assets/static/images/icons/car.svg

<svg width="24" height="24" viewBox="0 0 24 24" xmlns="http://www.w3.org/2000/svg" fill="currentColor" aria-hidden="true"> <g clip-path="url(#clip0_2076_2375)"> <path d="M22.5 9.75H21.7313L19.2262 4.11375C19.079 3.78221 18.8387 3.50053 18.5345 3.30284C18.2303 3.10515 17.8753 2.99995 17.5125 3H6.4875C6.12472 2.99995 5.76972 3.10515 5.46553 3.30284C5.16134 3.50053 4.92104 3.78221 4.77375 4.11375L2.26875 9.75H1.5C1.20163 9.75 0.915483 9.86853 0.704505 10.0795C0.493526 10.2905 0.375 10.5766 0.375 10.875C0.375 11.1734 0.493526 11.4595 0.704505 11.6705C0.915483 11.8815 1.20163 12 1.5 12H1.875V19.125C1.875 19.6223 2.07254 20.0992 2.42417 20.4508C2.77581 20.8025 3.25272 21 3.75 21H6.375C6.87228 21 7.34919 20.8025 7.70083 20.4508C8.05246 20.0992 8.25 19.6223 8.25 19.125V17.25H15.75V19.125C15.75 19.6223 15.9475 20.0992 16.2992 20.4508C16.6508 20.8025 17.1277 21 17.625 21H20.25C20.7473 21 21.2242 20.8025 21.5758 20.4508C21.9275 20.0992 22.125 19.6223 22.125 19.125V12H22.5C22.7984 12 23.0845 11.8815 23.2955 11.6705C23.5065 11.4595 23.625 11.1734 23.625 10.875C23.625 10.5766 23.5065 10.2905 23.2955 10.0795C23.0845 9.86853 22.7984 9.75 22.5 9.75ZM6.73125 5.25H17.2687L19.2684 9.75H4.73156L6.73125 5.25ZM6 18.75H4.125V17.25H6V18.75ZM18 18.75V17.25H19.875V18.75H18ZM19.875 15H4.125V12H19.875V15Z"/> </g> <defs> <clipPath id="clip0_2076_2375"> <rect width="24" height="24"/> </clipPath> </defs> </svg>

<svg viewBox="0 0 24 24" xmlns="http://www.w3.org/2000/svg" aria-hidden="true" fill="currentColor"><g clip-path="url(#a)"><path d="M22.5 9.75h-.769l-2.505-5.636A1.87 1.87 0 0 0 17.513 3H6.486a1.88 1.88 0 0 0-1.713 1.114L2.269 9.75H1.5a1.125 1.125 0 0 0 0 2.25h.375v7.125A1.875 1.875 0 0 0 3.75 21h2.625a1.875 1.875 0 0 0 1.875-1.875V17.25h7.5v1.875A1.875 1.875 0 0 0 17.625 21h2.625a1.875 1.875 0 0 0 1.875-1.875V12h.375a1.125 1.125 0 1 0 0-2.25M6.731 5.25H17.27l2 4.5H4.731zM6 18.75H4.125v-1.5H6zm12 0v-1.5h1.875v1.5zM19.875 15H4.125v-3h15.75z"/></g><defs><clipPath id="a"><path d="M0 0h24v24H0z"/></clipPath></defs></svg>
